X:1
T:Title
%%score { ( 1 3 ) | ( 2 4 ) }
L:1/8
M:6/8
K:Ab
V:1 treble nm="Grand Piano"
V:3 treble 
V:2 bass 
V:4 bass 
V:1
 z3 z2[Q:1/4=100] [CE]/[CE]/ | [CA][CA][CA] [CA]2 [DB] | [Ec]3- [Ec]2 [EA] | BBB d2 c | %4
[M:5/8] B-B- B3 |[M:1/8] B |[M:3/4] cc c c2 [_Ge] | [Fe]2 [Fd] [Fc]2 [FB] | AG A c2 B | %9
[M:5/8] [CA]-[CA]- [CA]3 |[M:1/8] [CE] |[M:3/4] [CE][CE] [CE] [DF]2 [DF] | [CE]6 | AA AA/A/- AA | %14
 [=EG]6 | FF F.[FA] z [DF] | [DF]2 [CE] .[CE]3 |[M:7/8] E<EE E3 E |[M:5/8] [CE]-[CE]- [CE]3 |] %19
V:2
 z3 z2 [A,,A,]/[A,,A,]/ | [A,,E,][A,,E,][A,,E,] [A,,E,]2 [A,,E,] | [A,,A,]3- [A,,A,]2 [C,A,] | %3
 [E,G,E][E,G,E][E,G,E] [E,B,E]2 [E,A,E] |[M:5/8] [E,G,E]-[E,G,E]- [E,G,E]3 |[M:1/8] [E,G,E] | %6
[M:3/4] [A,E][A,E] [A,E] [A,E]2 [C,A,] | [D,A,]2 [D,A,] [D,A,]2 [D,D] | %8
 [E,CE][E,B,E] [E,CE] [E,A,E]2 [E,G,D] |[M:5/8] [A,,A,]-[A,,A,]- [A,,A,]3 |[M:1/8] [A,,A,] | %11
[M:3/4] [A,,A,][A,,A,] [A,,A,] [D,A,]2 [D,A,] | [A,,A,]6 | %13
 [F,CF][F,CF] [F,CF][F,CF]/[F,CF]/- [F,CF][F,CF] | C4 z2 | [D,A,D][D,A,D] [D,A,D].[D,A,] z [D,A,] | %16
 [A,,A,]2 [A,,A,] .[A,,A,]3 |[M:7/8] [E,G,B,]<[E,G,B,][E,A,C] [E,B,D]3 [E,G,D] | %18
[M:5/8] [A,,A,]-[A,,A,]- [A,,A,]3 |] %19
V:3
 x6 | x6 | x6 | x6 |[M:5/8] x5 |[M:1/8] x |[M:3/4] x6 | x6 | x6 |[M:5/8] x5 |[M:1/8] x | %11
[M:3/4] x6 | x6 | x6 | z2 z .B,3 | x6 | x6 |[M:7/8] x7 |[M:5/8] x5 |] %19
V:4
 x6 | x6 | x6 | x6 |[M:5/8] x5 |[M:1/8] x |[M:3/4] x6 | x6 | x6 |[M:5/8] x5 |[M:1/8] x | %11
[M:3/4] x6 | x6 | x6 | C,6 | x6 | x6 |[M:7/8] x7 |[M:5/8] x5 |] %19

